X:2245
T:Girls of Banbridge, The
O:england
R:Jig
S:Ciaran Kelly, Moneymore, Derry (Accordion)
D:Session tape - Cross Keys, Antrim
M:6/8
L:1/8
K:D
A2d dcB|ABG FED|FAD FAD|CEE E3|
A2d dcB|ABG FED|def gec|edc d3:|
|:ABA dfa|agf efg|fef ged|cee e3|
ABA dfa|agf efg|fef gec|edc d3:|


